ui/StatusQ/src/assets/img/icons/image.svg

<svg fill="none" height="24" viewBox="0 0 24 24" width="24" xmlns="http://www.w3.org/2000/svg"><g clip-rule="evenodd" fill="#000" fill-rule="evenodd"><path d="m18.5 9.5c0 1.6569-1.3431 3-3 3s-3-1.3431-3-3c0-1.65685 1.3431-3 3-3s3 1.34315 3 3zm-1.5 0c0 .8284-.6716 1.5-1.5 1.5s-1.5-.6716-1.5-1.5c0-.82843.6716-1.5 1.5-1.5s1.5.67157 1.5 1.5z"/><path d="m6 3c-2.20914 0-4 1.79086-4 4v10c0 2.2091 1.79086 4 4 4h12c2.2091 0 4-1.7909 4-4v-10c0-2.20914-1.7909-4-4-4zm12 1.5h-12c-1.38071 0-2.5 1.11929-2.5 2.5v3.2322c0 .4455.53857.6686.85355.3536l1.40901-1.40902c.68342-.68342 1.79146-.68342 2.47488 0l10.08066 10.08072c.1191.119.2913.1736.4514.1218 1.0042-.3245 1.7305-1.2671 1.7305-2.3793v-10c0-1.38071-1.1193-2.5-2.5-2.5zm-14.46967 9.0303c-.0188.0188-.03033.0439-.03033.0705v3.3992c0 1.3807 1.11929 2.5 2.5 2.5h9.2322c.4455 0 .6686-.5386.3536-.8536l-8.40902-8.409c-.09764-.0976-.25593-.0976-.35356 0z"/></g></svg>

<svg width="24" height="24" viewBox="0 0 24 24" fill="none" xmlns="http://www.w3.org/2000/svg">
<path fill-rule="evenodd" clip-rule="evenodd" d="M18.5 9.5C18.5 11.1569 17.1569 12.5 15.5 12.5C13.8431 12.5 12.5 11.1569 12.5 9.5C12.5 7.84315 13.8431 6.5 15.5 6.5C17.1569 6.5 18.5 7.84315 18.5 9.5ZM17 9.5C17 10.3284 16.3284 11 15.5 11C14.6716 11 14 10.3284 14 9.5C14 8.67157 14.6716 8 15.5 8C16.3284 8 17 8.67157 17 9.5Z" fill="black"/>
<path fill-rule="evenodd" clip-rule="evenodd" d="M6 3C3.79086 3 2 4.79086 2 7V17C2 19.2091 3.79086 21 6 21H18C20.2091 21 22 19.2091 22 17V7C22 4.79086 20.2091 3 18 3H6ZM18 4.5H6C4.61929 4.5 3.5 5.61929 3.5 7V10.2322C3.5 10.6777 4.03857 10.9008 4.35355 10.5858L5.76256 9.17678C6.44598 8.49336 7.55402 8.49336 8.23744 9.17678L18.3181 19.2575C18.4372 19.3765 18.6094 19.4311 18.7695 19.3793C19.7737 19.0548 20.5 18.1122 20.5 17V7C20.5 5.61929 19.3807 4.5 18 4.5ZM3.53033 13.5303C3.51153 13.5491 3.5 13.5742 3.5 13.6008V17C3.5 18.3807 4.61929 19.5 6 19.5H15.2322C15.6777 19.5 15.9008 18.9614 15.5858 18.6464L7.17678 10.2374C7.07914 10.1398 6.92085 10.1398 6.82322 10.2374L3.53033 13.5303Z" fill="black"/>
</svg>
